svg/chart_box_plus_outline.svg

<svg xmlns="http://www.w3.org/2000/svg" viewBox="0 0 24 24"><path d="M22 5v2h-3v3h-2V7h-3V5h3V2h2v3zm-3 14H5V5h6V3H5c-1.1 0-2 .9-2 2v14c0 1.1.9 2 2 2h14c1.1 0 2-.9 2-2v-6h-2zm-4-6v4h2v-4zm-4 4h2V9h-2zm-2 0v-6H7v6z"/></svg>

<?xml version="1.0" encoding="UTF-8"?><!DOCTYPE svg PUBLIC "-//W3C//DTD SVG 1.1//EN" "http://www.w3.org/Graphics/SVG/1.1/DTD/svg11.dtd"><svg xmlns="http://www.w3.org/2000/svg" xmlns:xlink="http://www.w3.org/1999/xlink" version="1.1" id="mdi-chart-box-plus-outline" width="24" height="24" viewBox="0 0 24 24"><path d="M22 5V7H19V10H17V7H14V5H17V2H19V5H22M19 19H5V5H11V3H5C3.9 3 3 3.9 3 5V19C3 20.1 3.9 21 5 21H19C20.1 21 21 20.1 21 19V13H19V19M15 13V17H17V13H15M11 17H13V9H11V17M9 17V11H7V17H9Z" /></svg>
